src/images/icons/icon-contact-import.svg

<?xml version="1.0" encoding="UTF-8"?>
<svg width="40px" height="40px" viewBox="0 0 40 40" version="1.1" xmlns="http://www.w3.org/2000/svg" xmlns:xlink="http://www.w3.org/1999/xlink">
    <!-- Generator: Sketch 50.2 (55047) - http://www.bohemiancoding.com/sketch -->
    <title>Artboard 2 Copy 2</title>
    <desc>Created with Sketch.</desc>
    <defs></defs>
    <g id="Artboard-2-Copy-2" stroke="none" stroke-width="1" fill="none" fill-rule="evenodd">
        <path d="M27,27 C23.6862915,27 21,23.8659932 21,20 C21,16.1340068 23.6862915,13 27,13 C30.3137085,13 33,16.1340068 33,20 C33,23.8659932 30.3137085,27 27,27 Z M15,34 C15,32.5 18,28 21,28 C24,28 22.5,29.5 27,29.5 C31.5,29.5 30,28 33,28 C36,28 39,32.5 39,34 C39,35.5 39,37 37.5,37 L16.5,37 C15,37 15,35.5 15,34 Z" id="icon-user-16" fill="#FF9300"></path>
        <path d="M18.8491054,14.2129818 C18.4930203,15.3603671 18.1369352,16.5077524 17.7808501,17.6947028 C17.6621551,18.0903529 17.54346,18.446438 17.424765,18.8420881 C18.2160652,14.846022 15.3673844,10.8499558 12.5187036,8.35736006 C12.2813135,8.159535 12.0834884,7.96170995 11.8460984,7.76388489 C11.4504482,7.40779978 11.0943631,7.05171468 10.659148,6.73519459 C9.15567758,5.50867923 7.45438208,4.47998893 5.59482653,3.76781872 C4.32874616,3.25347357 2.35049558,2.46217333 1.20311025,3.53042865 C0.926155164,3.80738373 0.965720176,4.08433881 1.12398022,4.12390382 C1.48006533,4.20303384 2.4296256,4.36129389 3.41875089,4.75694401 C6.18830171,5.7460693 8.72046245,7.28910475 10.8965381,9.26735533 C12.3208785,10.5730007 13.5869589,12.0764712 14.6156492,13.7382016 C15.5652095,15.2416721 16.3960747,16.8638376 16.7125948,18.6046981 C16.7125948,18.6838281 16.7521598,18.7629581 16.7521598,18.8816531 C15.8817295,17.5760078 14.9717343,16.3494924 14.140869,15.004282 C13.5078289,14.0151567 12.4791385,14.806457 13.1913088,15.8351473 C13.7056539,16.5868825 14.2199991,17.3781827 14.7739092,18.0903529 C15.5652095,19.4355633 16.5543347,20.6620787 17.54346,21.888594 C17.7017201,22.0864191 18.0973702,22.0864191 18.2951953,21.3346839 C18.7699754,19.4751283 19.7986657,14.964717 19.7986657,14.7668919 C20.0756208,13.5799416 19.0469305,13.5799416 18.8491054,14.2129818 Z" id="Shape" fill="#FFD799" fill-rule="nonzero"></path>
    </g>
</svg>

<svg xmlns="http://www.w3.org/2000/svg" width="40" height="40"><g fill="none" fill-rule="evenodd"><path fill="#FF9300" d="M27 27c-3.314 0-6-3.134-6-7s2.686-7 6-7 6 3.134 6 7-2.686 7-6 7Zm-12 7c0-1.5 3-6 6-6s1.5 1.5 6 1.5 3-1.5 6-1.5 6 4.5 6 6 0 3-1.5 3h-21C15 37 15 35.5 15 34Z"/><path fill="#FFD799" fill-rule="nonzero" d="M18.85 14.213c-.357 1.147-.713 2.295-1.07 3.482-.118.395-.237.751-.355 1.147.791-3.996-2.058-7.992-4.906-10.485-.238-.197-.436-.395-.673-.593-.396-.356-.752-.712-1.187-1.029C9.156 5.51 7.454 4.48 5.595 3.768 4.329 3.253 2.35 2.462 1.203 3.53c-.277.277-.237.554-.079.594.356.079 1.306.237 2.295.633 2.77.99 5.301 2.532 7.478 4.51a21.295 21.295 0 0 1 3.719 4.471c.95 1.504 1.78 3.126 2.097 4.867 0 .079.04.158.04.277-.871-1.306-1.781-2.533-2.612-3.878-.633-.989-1.662-.198-.95.831.515.752 1.029 1.543 1.583 2.255.791 1.346 1.78 2.572 2.77 3.799.158.197.553.197.751-.554.475-1.86 1.504-6.37 1.504-6.568.277-1.187-.752-1.187-.95-.554Z"/></g></svg>
